X: 4
T: Captain O'Kane
R: jig
M: 6/8
L: 1/8
K: Amin
M: 3/4
|: AG |E2 A2 B2 | c4 BA | Bc dc BA | G2 A2 B2 |
c2 e2 c2 | ed cB AG | E2 A2 ^G2 | A4 :|
|: AB |c2 e2 e2 | e4 dc | B2 d2 d2 | d4 cB |
A2 a2 a2 | a2 b2 c’2 | e2 a2 ^g2 | a4 ab |
c’2 b2 a2 | g2 f2 e2 | ed cB g2 | G3 A B2 |
c2 e2 c2 | ed cB AG | E2 A2 ^G2 | A4 :|


Tune 858	Setting 26626

